X: 1
T: S\onderhoning 1
O: trad Danmark
Z: John Chambers <jc@trillian.mit.edu>
M: 2/4
L: 1/8
K: A
[| "A"ee e>d | cc c>B | AB/c/ dc | "E7"c2 B2 \
|  "A"ee e>d | cc c>B | AB/c/ dc | "E7"c2 B2 ||
|| "A"ec ec | "D"af d2 | "Bm"d>d ff | "E7"bg e2 \
|  "A"cc/B/ ce | "F#m"AA/G/ Ac | "Bm"dB "E7"GB | "A"A4 |]
